packages/ui-kit/src/icons/svg/HTTP-API-small.svg

<?xml version="1.0" encoding="UTF-8"?>
<svg width="25px" height="25px" viewBox="0 0 25 25" version="1.1" xmlns="http://www.w3.org/2000/svg" xmlns:xlink="http://www.w3.org/1999/xlink">
    <title>HTTP_API_25x25</title>
    <g id="Color-Scheme---Products-/-Solution" stroke="none" stroke-width="1" fill="none" fill-rule="evenodd">
        <g id="Icon-final" transform="translate(-21.000000, -119.000000)" fill-rule="nonzero">
            <g id="HTTP_API_25x25" transform="translate(21.000000, 119.000000)">
                <path d="M12.4217872,23.9096987 C12.3217872,23.9096987 12.3217872,23.9096987 12.2217872,23.8096987 L0.821787244,16.4096987 C0.721787244,16.3096987 0.621787244,16.2096987 0.621787244,16.1096987 C0.621787244,16.0096987 0.721787244,15.8096987 0.821787244,15.8096987 L3.32178724,14.2096987 L3.72178724,14.9096987 L1.72178724,16.2096987 L12.4217872,23.1096987 L23.1217872,16.2096987 L21.1217872,14.9096987 L21.5217872,14.2096987 L24.1217872,15.9096987 C24.2217872,16.0096987 24.3217872,16.1096987 24.3217872,16.2096987 C24.3217872,16.3096987 24.2217872,16.5096987 24.1217872,16.5096987 L12.7217872,23.9096987 C12.5217872,23.9096987 12.5217872,23.9096987 12.4217872,23.9096987 Z" id="Path" fill="#078CDF"></path>
                <path d="M12.4217872,20.6096987 C12.3217872,20.6096987 12.3217872,20.6096987 12.2217872,20.5096987 L0.821787244,13.1096987 C0.721787244,13.0096987 0.621787244,12.9096987 0.621787244,12.8096987 C0.621787244,12.7096987 0.721787244,12.5096987 0.821787244,12.5096987 L3.42178724,10.8096987 L3.82178724,11.5096987 L1.72178724,12.8096987 L12.4217872,19.7096987 L23.1217872,12.8096987 L21.0217872,11.5096987 L21.4217872,10.8096987 L24.0217872,12.5096987 C24.1217872,12.6096987 24.2217872,12.7096987 24.2217872,12.8096987 C24.2217872,12.9096987 24.1217872,13.1096987 24.0217872,13.1096987 L12.6217872,20.5096987 C12.5217872,20.6096987 12.5217872,20.6096987 12.4217872,20.6096987 Z" id="Path" fill="#078CDF"></path>
                <path d="M12.4217872,17.3096987 C12.3217872,17.3096987 12.3217872,17.3096987 12.2217872,17.2096987 L0.821787244,9.80969871 C0.721787244,9.70969871 0.621787244,9.60969871 0.621787244,9.50969871 C0.621787244,9.40969871 0.721787244,9.20969871 0.821787244,9.20969871 L3.52178724,7.50969871 C3.72178724,7.40969871 3.92178724,7.40969871 4.02178724,7.60969871 C4.12178724,7.80969871 4.12178724,8.00969871 3.92178724,8.10969871 L1.72178724,9.50969871 L12.4217872,16.4096987 L23.1217872,9.50969871 L20.8217872,8.00969871 C20.6217872,7.90969871 20.6217872,7.60969871 20.7217872,7.50969871 C20.8217872,7.30969871 21.1217872,7.30969871 21.2217872,7.40969871 L24.0217872,9.20969871 C24.1217872,9.30969871 24.2217872,9.40969871 24.2217872,9.50969871 C24.2217872,9.60969871 24.1217872,9.80969871 24.0217872,9.80969871 L12.6217872,17.2096987 C12.5217872,17.2096987 12.5217872,17.3096987 12.4217872,17.3096987 Z" id="Path" fill="#078CDF"></path>
                <path d="M10.2159049,10.8155811 L8.69119901,10.8155811 L8.43708136,9.05572327 L6.57355195,9.05572327 L6.3194343,10.8155811 L4.92178724,10.8155811 L6.45708136,1.10969871 L8.68061077,1.10969871 L10.2159049,10.8155811 Z M6.76414019,7.73316348 L8.22531666,7.73316348 L7.49472842,2.82689328 L6.76414019,7.73316348 Z" id="Shape" fill="#044E7C"></path>
                <path d="M16.3923755,3.50950479 L16.3923755,4.76806975 C16.3923755,6.32527725 15.6622962,7.16787583 14.1708486,7.16787583 L13.4720584,7.16787583 L13.4720584,10.8155811 L11.9806108,10.8155811 L11.9806108,1.10969871 L14.1708486,1.10969871 C15.6622962,1.10969871 16.3923755,1.95229729 16.3923755,3.50950479 Z M13.4720584,2.49625333 L13.4720584,5.7813212 L14.1708486,5.7813212 C14.6506149,5.7813212 14.9009278,5.5573393 14.9009278,4.86406199 L14.9009278,3.41351254 C14.9009278,2.72023523 14.6506149,2.49625333 14.1708486,2.49625333 L13.4720584,2.49625333 Z" id="Shape" fill="#044E7C"></path>
                <polygon id="Path" fill="#044E7C" points="18.1570814 1.10969871 19.9217872 1.10969871 19.9217872 10.8155811 18.1570814 10.8155811"></polygon>
            </g>
        </g>
    </g>
</svg>

<svg viewBox="0 0 25 25" width="25px" height="25px" xmlns="http://www.w3.org/2000/svg">
  <g fill-rule="nonzero" fill="none">
    <path d="M12.422 23.91c-.1 0-.1 0-.2-.1l-11.4-7.4c-.1-.1-.2-.2-.2-.3 0-.1.1-.3.2-.3l2.5-1.6.4.7-2 1.3 10.7 6.9 10.7-6.9-2-1.3.4-.7 2.6 1.7c.1.1.2.2.2.3 0 .1-.1.3-.2.3l-11.4 7.4h-.3z" fill="#078CDF"/>
    <path d="M12.422 20.61c-.1 0-.1 0-.2-.1l-11.4-7.4c-.1-.1-.2-.2-.2-.3 0-.1.1-.3.2-.3l2.6-1.7.4.7-2.1 1.3 10.7 6.9 10.7-6.9-2.1-1.3.4-.7 2.6 1.7c.1.1.2.2.2.3 0 .1-.1.3-.2.3l-11.4 7.4c-.1.1-.1.1-.2.1z" fill="#078CDF"/>
    <path d="M12.422 17.31c-.1 0-.1 0-.2-.1l-11.4-7.4c-.1-.1-.2-.2-.2-.3 0-.1.1-.3.2-.3l2.7-1.7c.2-.1.4-.1.5.1.1.2.1.4-.1.5l-2.2 1.4 10.7 6.9 10.7-6.9-2.3-1.5c-.2-.1-.2-.4-.1-.5.1-.2.4-.2.5-.1l2.8 1.8c.1.1.2.2.2.3 0 .1-.1.3-.2.3l-11.4 7.4c-.1 0-.1.1-.2.1z" fill="#078CDF"/>
    <path d="M10.216 10.816H8.69l-.254-1.76H6.574l-.255 1.76H4.922L6.457 1.11h2.224l1.535 9.706zM6.764 7.733h1.461l-.73-4.906-.73 4.906zM16.392 3.51v1.258c0 1.557-.73 2.4-2.221 2.4h-.699v3.648h-1.491V1.11h2.19c1.491 0 2.221.842 2.221 2.4zm-2.92-1.014v3.285h.699c.48 0 .73-.224.73-.917v-1.45c0-.694-.25-.918-.73-.918h-.699zM18.157 1.11h1.765v9.706h-1.765z" fill="#044E7C"/>
  </g>
</svg>
